ghost-off-outline.svg

<svg fill="currentColor" viewBox="0 0 24 24"><path d="M8.29 5.09 6.84 3.64A8.93 8.93 0 0 1 12 2a9 9 0 0 1 9 9v6.8l-2-2V11c0-3.86-3.14-7-7-7-1.37 0-2.64.4-3.71 1.09m13.82 16.37-1.27 1.27-3.28-3.28L15 22l-3-3-3 3-3-3-3 3V11c0-1.74.5-3.37 1.36-4.75L1.11 3l1.28-1.27 4.5 4.5 1.8 1.8 2.28 2.28 6.44 6.45h.01L21 20.34v.01zm-5.97-3.43-6.25-6.25c-.27.14-.57.22-.89.22a2 2 0 0 1-2-2c0-.32.08-.62.22-.89l-1.4-1.4C5.3 8.69 5 9.81 5 11v6.17l1-1 1.41 1.42L9 19.17l1.59-1.58L12 16.17l1.41 1.42L15 19.17zM15 8c-1.04 0-1.89.8-2 1.82L15.18 12c1.02-.11 1.82-.96 1.82-2a2 2 0 0 0-2-2"/></svg>

<svg  viewBox="0 0 24 24" fill="currentColor"><path  d="M8.29 5.09L6.84 3.64C8.3 2.61 10.08 2 12 2C16.97 2 21 6.03 21 11V17.8L19 15.8V11C19 7.14 15.86 4 12 4C10.63 4 9.36 4.4 8.29 5.09M22.11 21.46L20.84 22.73L17.56 19.45L15 22L12 19L9 22L6 19L3 22V11C3 9.26 3.5 7.63 4.36 6.25L1.11 3L2.39 1.73L6.89 6.23L8.69 8.03H8.69L10.97 10.31V10.31L17.41 16.76L17.42 16.76L21 20.34V20.35L22.11 21.46M16.14 18.03L9.89 11.78C9.62 11.92 9.32 12 9 12C7.9 12 7 11.11 7 10C7 9.68 7.08 9.38 7.22 9.11L5.82 7.71C5.3 8.69 5 9.81 5 11V17.17L6 16.17L7.41 17.59L9 19.17L10.59 17.59L12 16.17L13.41 17.59L15 19.17L16.14 18.03M15 8C13.96 8 13.11 8.8 13 9.82L15.18 12C16.2 11.89 17 11.04 17 10C17 8.9 16.11 8 15 8Z"/></svg>
